school/img/country/UZ.svg

<svg width="13" height="12" viewBox="0 0 13 12" fill="none" xmlns="http://www.w3.org/2000/svg">
<rect x="0.25" y="0.25" width="12.5" height="11.5" rx="1.75" fill="white" stroke="#F5F5F5" stroke-width="0.5"/>
<mask id="mask0" mask-type="alpha" maskUnits="userSpaceOnUse" x="0" y="0" width="13" height="12">
<rect x="0.25" y="0.25" width="12.5" height="11.5" rx="1.75" fill="white" stroke="white" stroke-width="0.5"/>
</mask>
<g mask="url(#mask0)">
<path fill-rule="evenodd" clip-rule="evenodd" d="M0 4H13V0H0V4Z" fill="#04AAC8"/>
<path fill-rule="evenodd" clip-rule="evenodd" d="M0 12H13V8H0V12Z" fill="#23C840"/>
<path fill-rule="evenodd" clip-rule="evenodd" d="M2.16673 3.2C2.35768 3.2 2.53517 3.12551 2.68275 2.9978C2.66565 2.99926 2.64839 3 2.63099 3C2.20363 3 1.85719 2.55228 1.85719 2C1.85719 1.44772 2.20363 1 2.63099 1C2.64839 1 2.66565 1.00074 2.68275 1.0022C2.53517 0.874486 2.35768 0.8 2.16673 0.8C1.65389 0.8 1.23816 1.33726 1.23816 2C1.23816 2.66274 1.65389 3.2 2.16673 3.2ZM3.71435 2.8C3.71435 3.02091 3.57577 3.2 3.40483 3.2C3.23388 3.2 3.0953 3.02091 3.0953 2.8C3.0953 2.57909 3.23388 2.4 3.40483 2.4C3.57577 2.4 3.71435 2.57909 3.71435 2.8ZM4.64294 1.6C4.81389 1.6 4.95247 1.42091 4.95247 1.2C4.95247 0.979086 4.81389 0.8 4.64294 0.8C4.472 0.8 4.33342 0.979086 4.33342 1.2C4.33342 1.42091 4.472 1.6 4.64294 1.6ZM6.19052 1.2C6.19052 1.42091 6.05194 1.6 5.88099 1.6C5.71005 1.6 5.57147 1.42091 5.57147 1.2C5.57147 0.979086 5.71005 0.8 5.88099 0.8C6.05194 0.8 6.19052 0.979086 6.19052 1.2ZM5.88099 3.2C6.05194 3.2 6.19052 3.02091 6.19052 2.8C6.19052 2.57909 6.05194 2.4 5.88099 2.4C5.71005 2.4 5.57147 2.57909 5.57147 2.8C5.57147 3.02091 5.71005 3.2 5.88099 3.2ZM4.95247 2.8C4.95247 3.02091 4.81389 3.2 4.64294 3.2C4.472 3.2 4.33342 3.02091 4.33342 2.8C4.33342 2.57909 4.472 2.4 4.64294 2.4C4.81389 2.4 4.95247 2.57909 4.95247 2.8Z" fill="white"/>
</g>
</svg>

<svg width="13" height="12" fill="none" xmlns="http://www.w3.org/2000/svg"><rect x=".25" y=".25" width="12.5" height="11.5" rx="1.75" fill="#fff" stroke="#F5F5F5" stroke-width=".5"/><mask id="a" maskUnits="userSpaceOnUse" x="0" y="0" width="13" height="12"><rect x=".25" y=".25" width="12.5" height="11.5" rx="1.75" fill="#fff" stroke="#fff" stroke-width=".5"/></mask><g mask="url(#a)" fill-rule="evenodd" clip-rule="evenodd"><path d="M0 4h13V0H0v4z" fill="#04AAC8"/><path d="M0 12h13V8H0v4z" fill="#23C840"/><path d="M2.167 3.2a.785.785 0 00.516-.202A.608.608 0 012.63 3c-.427 0-.774-.448-.774-1s.347-1 .774-1c.017 0 .035 0 .052.002A.785.785 0 002.167.8c-.513 0-.929.537-.929 1.2 0 .663.416 1.2.929 1.2zm1.547-.4c0 .22-.138.4-.31.4-.17 0-.309-.18-.309-.4 0-.22.139-.4.31-.4.17 0 .31.18.31.4zm.929-1.2c.17 0 .31-.18.31-.4 0-.22-.14-.4-.31-.4-.171 0-.31.18-.31.4 0 .22.139.4.31.4zm1.548-.4c0 .22-.14.4-.31.4-.171 0-.31-.18-.31-.4 0-.22.14-.4.31-.4.17 0 .31.18.31.4zm-.31 2c.17 0 .31-.18.31-.4 0-.22-.14-.4-.31-.4-.171 0-.31.18-.31.4 0 .22.14.4.31.4zm-.929-.4c0 .22-.138.4-.31.4-.17 0-.309-.18-.309-.4 0-.22.139-.4.31-.4.17 0 .31.18.31.4z" fill="#fff"/></g></svg>
